assets/img/services-list-item-6.svg

<svg xmlns="http://www.w3.org/2000/svg" width="32" height="31"><path fill-rule="evenodd" fill="#666D89" d="M31.881 11.557a2.303 2.303 0 00-1.843-1.511l-8.326-1.238-3.62-7.514A2.317 2.317 0 0016 0c-.896 0-1.711.505-2.092 1.294l-3.619 7.514-8.327 1.238A2.297 2.297 0 00.12 11.557c-.276.8-.068 1.682.537 2.285l6.102 6.093-1.415 8.451c-.144.85.225 1.705.948 2.203a2.358 2.358 0 002.449.131L16 26.812l7.26 3.908a2.366 2.366 0 002.449-.131 2.228 2.228 0 00.948-2.203l-1.416-8.451 6.103-6.093a2.21 2.21 0 00.537-2.285zm-8.293 6.806a2.213 2.213 0 00-.626 1.934l1.415 8.452-7.259-3.907a2.354 2.354 0 00-2.235 0l-7.26 3.907 1.416-8.452a2.213 2.213 0 00-.626-1.934l-6.102-6.091 8.326-1.241a2.308 2.308 0 001.744-1.267L16 2.251l3.62 7.513a2.303 2.303 0 001.742 1.267l8.327 1.241-6.101 6.091z"/></svg>

<svg 
 xmlns="http://www.w3.org/2000/svg"
 xmlns:xlink="http://www.w3.org/1999/xlink"
 width="32px" height="31px">
<path fill-rule="evenodd"  fill="rgb(102, 109, 137)"
 d="M31.881,11.557 C31.604,10.758 30.893,10.173 30.038,10.046 L21.712,8.808 L18.092,1.294 C17.712,0.505 16.896,0.000 16.000,0.000 C15.104,0.000 14.289,0.505 13.908,1.294 L10.289,8.808 L1.962,10.046 C1.106,10.173 0.395,10.758 0.120,11.557 C-0.156,12.357 0.052,13.239 0.657,13.842 L6.759,19.935 L5.344,28.386 C5.200,29.236 5.569,30.091 6.292,30.589 C6.689,30.861 7.156,31.000 7.623,31.000 C8.007,31.000 8.391,30.906 8.741,30.720 L16.000,26.812 L23.260,30.720 C23.609,30.906 23.994,31.000 24.377,31.000 C24.844,31.000 25.310,30.861 25.709,30.589 C26.431,30.091 26.800,29.236 26.657,28.386 L25.241,19.935 L31.344,13.842 C31.948,13.239 32.155,12.357 31.881,11.557 ZM23.588,18.363 C23.076,18.874 22.844,19.592 22.962,20.297 L24.377,28.749 L17.118,24.842 C16.769,24.654 16.385,24.561 16.000,24.561 C15.616,24.561 15.231,24.654 14.883,24.842 L7.623,28.749 L9.039,20.297 C9.157,19.592 8.925,18.874 8.413,18.363 L2.311,12.272 L10.637,11.031 C11.398,10.918 12.053,10.443 12.381,9.764 L16.000,2.251 L19.620,9.764 C19.947,10.443 20.601,10.918 21.362,11.031 L29.689,12.272 L23.588,18.363 Z"/>
</svg>
